X: 29098
T: Nell Beag
R: jig
M: 6/8
K: Cdorian
K:Eb
G2 A B2 G|E3 E2 F|G2 E B2 G|A3 EFE|
G2 A B2 G|E2 F G2 B|cde B2 G|F2 B, D2 F|
G2 E B2 G|E3 E2 F|G2 E B2 G|A3 EFE|
G2 A B2 G|E2 F G2 B|cde B2 G|F2 B, D2 F||
E2 C C2 B,|C3 C2 D|E2 C C2 B,|C2 B, G,2 B,|
E2 C C2 B,|C2 D E2 F|G2 F E2 G|F2 B, D2 F|
E2 C C2 B,|C3 C2 D|E2 C C2 B,|C2 B, G,2 B,|
E2 F D2 E|C3 E2 F|G2 F E2 G|FGF E2 F||

